public/assets/bot9.svg

<svg width="24" height="24" viewBox="0 0 24 24" fill="none" xmlns="http://www.w3.org/2000/svg">
<path fill-rule="evenodd" clip-rule="evenodd" d="M13.2 10.8007V10.8023H24V5.4023H18.5938V0.000732422H13.1938V10.8007H13.2ZM10.8 13.1992H0V18.5992H5.40625L5.40625 24H10.8062V13.2H10.8V13.1992ZM24 13.1992H18.6V18.5992H24V13.1992ZM18.5938 24V18.6H13.1938V24H18.5938Z" fill="#101928"/>
</svg>

<svg xmlns="http://www.w3.org/2000/svg" width="24" height="24" fill="none" xmlns:v="https://vecta.io/nano"><path fill-rule="evenodd" d="M13.2 10.801v.002H24v-5.4h-5.406V.001h-5.4v10.8h.006zm-2.4 2.398H0v5.4h5.406V24h5.4V13.2H10.8v-.001zm13.2 0h-5.4v5.4H24v-5.4zM18.594 24v-5.4h-5.4V24h5.4z" fill="#101928"/></svg>
